X: 5
T: Missa [sine nomine] &mdash; Agnus
C: Anonymous
%%abc-version 2.0
%%abcx-abcm2ps-target-version 5.9.1 (29 Sep 2008)
%%abc-creator hum2abc beta
%%abcx-conversion-date 2022/03/06 13:05:59
%%abc-copyright Copyright 2016, Kolb, Paul
%%abc-edited-by Zybina, Karina
%%humdrum-veritas 124866818
%%humdrum-veritas-data 2985932585
%%linebreak <none>
%%barnumbers 0
L: 1/4
M: 2/2
N: Derived from Ano0207e-Missa_sine_nomine_Agnus.krn
%%staves [1 2 3 4]
V: 1 clef=treble
V: 2 clef=treble-8
V: 3 clef=treble-8
V: 4 clef=bass
K: F
[V:1] G4 | 
[V:2] d4 | 
[V:3] G4 | 
[V:4] z4 | 
[V:1] F2G2- | 
[V:2] c2d2 | 
[V:3] A2G2 | 
[V:4] z4 | 
[V:1] GFD2 | 
[V:2] G3F | 
[V:3] B4 | 
[V:4] z4 | 
[V:1] _E2F2 | 
[V:2] _E2D2 | 
[V:3] c2d2 | 
[V:4] z4 | 
[V:1] B,2zB- | 
[V:2] d2B/c/d/e/ | 
[V:3] zd2B | 
[V:4] G,4 | 
[V:1] BAB2- | 
[V:2] f2d3/B/ | 
[V:3] c2B2 | 
[V:4] F,2G,2- | 
[V:1] BA/G/FB- | 
[V:2] Bf>_ef | 
[V:3] d4 | 
[V:4] G,F,D,2 | 
[V:1] BA/G/A2 | 
[V:2] g2f2 | 
[V:3] c4 | 
[V:4] _E,2F,2 | 
[V:1] B2zF- | 
[V:2] d4 | 
[V:3] B2A2 | 
[V:4] B,,2D,2- | 
[V:1] FE/D/E2 | 
[V:2] z2G2 | 
[V:3] B2c2 | 
[V:4] D,2C,2 | 
[V:1] F2B2 | 
[V:2] F2F/G/A/B/ | 
[V:3] A2d2 | 
[V:4] D,3C, | 
[V:1] A2G2 | 
[V:2] c2d2 | 
[V:3] c2B2 | 
[V:4] A,,2B,,2 | 
[V:1] G2^F2 | 
[V:2] _e2d2 | 
[V:3] A4 | 
[V:4] C,2D,2 | 
[V:1] G3F | 
[V:2] B3c | 
[V:3] G4- | 
[V:4] G,,3A,, | 
[V:1] DE2F- | 
[V:2] dc2A | 
[V:3] G2A2 | 
[V:4] B,,C,A,,D, | 
[V:1] FG2A- | 
[V:2] dB_ec | 
[V:3] B2c2 | 
[V:4] B,,_E,C,F,- | 
[V:1] ABAB- | 
[V:2] f_efd | 
[V:3] d3d- | 
[V:4] F,G,F,G, | 
[V:1] BA2G | 
[V:2] f2d2 | 
[V:3] dcB2 | 
[V:4] D,F,G,2 | 
[V:1] A4 | 
[V:2] d2cA- | 
[V:3] A3F- | 
[V:4] D,2z2 | 
[V:1] A2G2 | 
[V:2] Ad2^c | 
[V:3] FE/D/E2 | 
[V:4] z4 | 
[V:1] FA2G/F/ | 
[V:2] dD>EF/G/ | 
[V:3] D2zd- | 
[V:4] z4 | 
[V:1] E2D2 | 
[V:2] A2z2 | 
[V:3] dcBd- | 
[V:4] z2D,3/E,/ | 
[V:1] zd>cc | 
[V:2] z4 | 
[V:3] dc/B/A2 | 
[V:4] F,G,2^F, | 
[V:1] Bd2c/B/ | 
[V:2] z2zg- | 
[V:3] G2z2 | 
[V:4] G,G,,>A,,B,,/C,/ | 
[V:1] A2G3/A/ | 
[V:2] gf_eg- | 
[V:3] z4 | 
[V:4] D,2z2 | 
[V:1] Bc2B | 
[V:2] gf/_e/d2 | 
[V:3] z4 | 
[V:4] z4 | 
[V:1] Ac2B/A/ | 
[V:2] c>d_ef- | 
[V:3] z4 | 
[V:4] z4 | 
[V:1] G2F3/G/ | 
[V:2] f_edf- | 
[V:3] z4 | 
[V:4] z4 | 
[V:1] AB2A | 
[V:2] f_e/d/c2 | 
[V:3] z4 | 
[V:4] z2F,2 | 
[V:1] B2z2 | 
[V:2] B4 | 
[V:3] d4 | 
[V:4] G,3F,/_E,/ | 
[V:1] B>ABc- | 
[V:2] d2_e2 | 
[V:3] dB2G | 
[V:4] D,G,2C, | 
[V:1] cA2B- | 
[V:2] c2d2 | 
[V:3] A2F2 | 
[V:4] F,2D,2 | 
[V:1] BG2A- | 
[V:2] B2c2 | 
[V:3] G2E2 | 
[V:4] _E,2C,2 | 
[V:1] AF2G- | 
[V:2] A2B2 | 
[V:3] F2D2 | 
[V:4] D,2B,,2 | 
[V:1] GE>FA- | 
[V:2] G2Ac | 
[V:3] ECc2 | 
[V:4] C,2A,,2 | 
[V:1] AG2^F | 
[V:2] Bd3 | 
[V:3] dBA2 | 
[V:4] B,,G,,D,2 | 
[V:1] G4 ||  
[V:2] d4 ||  
[V:3] G4 ||  
[V:4] G,,4 ||  
[V:1] [M:2/2]z4 | 
[V:2] [M:2/2]z4 | 
[V:3] [M:2/2]D2EF- | 
[V:4] [M:2/2]D,2C,D,- | 
[V:1] z4 | 
[V:2] z4 | 
[V:3] FE/D/ED- | 
[V:4] D,C,/B,,/C,B,, | 
[V:1] z4 | 
[V:2] z4 | 
[V:3] DG2^F | 
[V:4] G,,2A,,2 | 
[V:1] z4 | 
[V:2] z4 | 
[V:3] G2AB- | 
[V:4] G,,G,F,G,- | 
[V:1] z4 | 
[V:2] z4 | 
[V:3] BA/G/AG- | 
[V:4] G,F,/E,/F,E, | 
[V:1] z4 | 
[V:2] z4 | 
[V:3] Gc2=B | 
[V:4] C,2D,2 | 
[V:1] z4 | 
[V:2] z4 | 
[V:3] c>B A/G/B | 
[V:4] C,/B,,/A,,/G,,/D,2- | 
[V:1] z4 | 
[V:2] z4 | 
[V:3] AG2^F | 
[V:4] D,B,,A,,2 | 
[V:1] D2EF- | 
[V:2] d2cd- | 
[V:3] G2z2 | 
[V:4] G,,2z2 | 
[V:1] FE/D/ED- | 
[V:2] dc/B/cB | 
[V:3] z4 | 
[V:4] z4 | 
[V:1] DG2^F | 
[V:2] G2A2 | 
[V:3] z4 | 
[V:4] z4 | 
[V:1] G2AB- | 
[V:2] Ggfg- | 
[V:3] z4 | 
[V:4] z4 | 
[V:1] BA/G/AG- | 
[V:2] gf/e/fe | 
[V:3] z4 | 
[V:4] z4 | 
[V:1] Gc2=B | 
[V:2] c2d2 | 
[V:3] z4 | 
[V:4] z4 | 
[V:1] c>B A/G/B | 
[V:2] c/B/A/G/d2- | 
[V:3] z4 | 
[V:4] z4 | 
[V:1] AG2^F | 
[V:2] dBA2 | 
[V:3] z4 | 
[V:4] z4 | 
[V:1] G4 | 
[V:2] G2z2 | 
[V:3] zG>AB/c/ | 
[V:4] z4 | 
[V:1] z4 | 
[V:2] z4 | 
[V:3] d3c/B/ | 
[V:4] G,,2G,,/A,,/B,,/C,/ | 
[V:1] z4 | 
[V:2] z4 | 
[V:3] A2B2 | 
[V:4] D,3C, | 
[V:1] z4 | 
[V:2] z4 | 
[V:3] c2BG- | 
[V:4] A,,2B,,2 | 
[V:1] z4 | 
[V:2] z4 | 
[V:3] GF/E/DF | 
[V:4] C,2B,,D, | 
[V:1] z4 | 
[V:2] z4 | 
[V:3] GB2A | 
[V:4] _E,/D,/C,/B,,/C,2 | 
[V:1] zB2A/G/ | 
[V:2] zd2c/B/ | 
[V:3] B2z2 | 
[V:4] B,,2z2 | 
[V:1] A2FG- | 
[V:2] c2d_e | 
[V:3] z4 | 
[V:4] z4 | 
[V:1] GF/_E/D2 | 
[V:2] c2B2 | 
[V:3] z2zB- | 
[V:4] z2zG,- | 
[V:1] z4 | 
[V:2] z4 | 
[V:3] BA/G/A2 | 
[V:4] G,F,/E,/F,2 | 
[V:1] z4 | 
[V:2] z4 | 
[V:3] FG2F/_E/ | 
[V:4] D,_E,C,2 | 
[V:1] z4 | 
[V:2] zB2A/G/ | 
[V:3] D2z2 | 
[V:4] B,,D,2C,/B,,/ | 
[V:1] z4 | 
[V:2] AG2^F | 
[V:3] z4 | 
[V:4] C,B,,A,,2 | 
[V:1] B>AF3/G/ | 
[V:2] G2z2 | 
[V:3] zGB3/A/ | 
[V:4] G,,2z2 | 
[V:1] A>GE3/F/ | 
[V:2] z4 | 
[V:3] F>GA3/G/ | 
[V:4] z4 | 
[V:1] G>FDF- | 
[V:2] z4 | 
[V:3] E>FGF | 
[V:4] z4 | 
[V:1] FE/D/E2 | 
[V:2] z4 | 
[V:3] Dd2^c | 
[V:4] z2A,2- | 
[V:1] D2z2 | 
[V:2] D>E F/G/A/B/ | 
[V:3] d2z2 | 
[V:4] A,F,2E,/D,/ | 
[V:1] z4 | 
[V:2] A3/G//F// E/D/B- | 
[V:3] z4 | 
[V:4] C,3D,- | 
[V:1] z4 | 
[V:2] B/A/G2^F | 
[V:3] z4 | 
[V:4] D,C,/B,,/A,,2 | 
[V:1] D>E F/G/A/B/ | 
[V:2] G2D2 | 
[V:3] B2AF- | 
[V:4] G,,2zD,- | 
[V:1] A>G E/D/B- | 
[V:2] z2G3/A/ | 
[V:3] F/G/A/B/cB | 
[V:4] D,/E,/F,C,G,- | 
[V:1] B/A/G2^F | 
[V:2] Bcd2 | 
[V:3] G2A2 | 
[V:4] G,/D,/_E,D,2 | 
[V:1] G4 ||  
[V:2] d4 ||  
[V:3] G4 ||  
[V:4] G,,4 ||  
[V:1] [M:2/2]z4 | 
[V:2] [M:2/2]D4 | 
[V:3] [M:2/2]z4 | 
[V:4] [M:2/2]z4 | 
[V:1] z2D2- | 
[V:2] E2D3/E/ | 
[V:3] z4 | 
[V:4] z4 | 
[V:1] D2E2 | 
[V:2] FG2A | 
[V:3] z4 | 
[V:4] z4 | 
[V:1] D>EFG- | 
[V:2] B2AG- | 
[V:3] z4 | 
[V:4] z4 | 
[V:1] GAB2- | 
[V:2] G/E/FG2 | 
[V:3] z2G2- | 
[V:4] z4 | 
[V:1] BG2^F | 
[V:2] B2c2 | 
[V:3] G2A2 | 
[V:4] z4 | 
[V:1] G2zG | 
[V:2] d3c | 
[V:3] G2B2 | 
[V:4] G,,4 | 
[V:1] c2B2- | 
[V:2] A2B2- | 
[V:3] c2d2- | 
[V:4] A,,2G,,2 | 
[V:1] BG2F/_E/ | 
[V:2] B2_e2 | 
[V:3] d2c2 | 
[V:4] B,,2C,2 | 
[V:1] F3G | 
[V:2] d3_e | 
[V:3] A4 | 
[V:4] D,4- | 
[V:1] ABc2 | 
[V:2] fFG2 | 
[V:3] d2c/B/A/G/ | 
[V:4] D,2_E,2 | 
[V:1] d2c2 | 
[V:2] ABc2 | 
[V:3] FB2A | 
[V:4] D,B,,F,2 | 
[V:1] F>GA2 | 
[V:2] d>ef2 | 
[V:3] B2A2 | 
[V:4] z2F,2 | 
[V:1] D2G2- | 
[V:2] zd_e2 | 
[V:3] B2c2 | 
[V:4] G,2C,2 | 
[V:1] G2^F2 | 
[V:2] d4 | 
[V:3] A4 | 
[V:4] D,2D,2 | 
[V:1] G4 | 
[V:2] B>cd_e- | 
[V:3] G4- | 
[V:4] G,,>A,,B,,C,- | 
[V:1] zG2F/_E/ | 
[V:2] edc2 | 
[V:3] G4- | 
[V:4] C,B,,C,2 | 
[V:1] D_EDG- | 
[V:2] B>cd_e | 
[V:3] G4- | 
[V:4] G,,4- | 
[V:1] GF/_E/ED/C/ | 
[V:2] dg2f/_e/ | 
[V:3] G4 | 
[V:4] G,,4 | 
[V:1] B,_EDG- | 
[V:2] _ed/c/B_e- | 
[V:3] G4- | 
[V:4] z4 | 
[V:1] G/F/_EDC- | 
[V:2] e/d/g2f/_e/ | 
[V:3] G4- | 
[V:4] C,2B,,C, | 
[V:1] C=B,C2 | 
[V:2] d2c2 | 
[V:3] G4 | 
[V:4] G,,2C,2 | 
[V:1] D>EFE- | 
[V:2] zF2c- | 
[V:3] B>AFG- | 
[V:4] B,,>C,D,C,- | 
[V:1] ED2^C | 
[V:2] c/B/A3 | 
[V:3] G/F/E/D/E2 | 
[V:4] C,D,A,,2 | 
[V:1] D3E- | 
[V:2] F2BG | 
[V:3] D2G2 | 
[V:4] B,,2G,,C,- | 
[V:1] E/C<FD/G- | 
[V:2] cAd/c/B/A/ | 
[V:3] A2B2- | 
[V:4] C,D,2_E,- | 
[V:1] G/F/D_E2 | 
[V:2] GF2_E | 
[V:3] B2A2 | 
[V:4] E,/D,/B,,C,2 | 
[V:1] D>_EFG- | 
[V:2] Ff2_e | 
[V:3] B4 | 
[V:4] B,,>C,D,_E,- | 
[V:1] G/E<AF/B- | 
[V:2] cf2e | 
[V:3] c2dB | 
[V:4] E,F,D,G, | 
[V:1] BAB3/A/ | 
[V:2] f2d3/e/ | 
[V:3] c2B2 | 
[V:4] F,2G,3/F,/ | 
[V:1] FB2A- | 
[V:2] fdge | 
[V:3] d3c- | 
[V:4] D,G,2A, | 
[V:1] AG2^F | 
[V:2] fd3 | 
[V:3] cBA2 | 
[V:4] F,G,D,2 | 
[V:1] G4 | 
[V:2] B2z2 | 
[V:3] G4 | 
[V:4] z2G,2 | 
[V:1] z4 | 
[V:2] d2cB- | 
[V:3] z4 | 
[V:4] F,2_E,2- | 
[V:1] z4 | 
[V:2] BA/G/ F/G/A/B/ | 
[V:3] z4 | 
[V:4] E,2D,2 | 
[V:1] z4 | 
[V:2] cB2A | 
[V:3] z4 | 
[V:4] C,4 | 
[V:1] [M:3/2]z6 | 
[V:2] [M:3/2]B4z2 | 
[V:3] [M:3/2]d2>B2c2 | 
[V:4] [M:3/2]B,,4z2 | 
[V:1] d2>B2c2 | 
[V:2] z6 | 
[V:3] B2>A2F2 | 
[V:4] z6 | 
[V:1] B2>A2G2 | 
[V:2] z6 | 
[V:3] G2>A2Bc | 
[V:4] z6 | 
[V:1] FGABc2 | 
[V:2] z6 | 
[V:3] d2>c2A2 | 
[V:4] z6 | 
[V:1] B4A2 | 
[V:2] z6 | 
[V:3] B2c4 | 
[V:4] z6 | 
[V:1] B4z2 | 
[V:2] f2>d2_e2 | 
[V:3] B4z2 | 
[V:4] z6 | 
[V:1] z6 | 
[V:2] d2>B2A2 | 
[V:3] z6 | 
[V:4] G,4F,2 | 
[V:1] z6 | 
[V:2] G3F/_E<D_E/ | 
[V:3] z6 | 
[V:4] _E,2>D,2B,,3/C,/ | 
[V:1] z6 | 
[V:2] F/G/A2G2^F | 
[V:3] z6 | 
[V:4] D,C,2B,,A,,2 | 
[V:1] G2>F2D3/E/ | 
[V:2] G4z2 | 
[V:3] B2>A2FB | 
[V:4] G,,4z2 | 
[V:1] F/G/A2G2^F | 
[V:2] z6 | 
[V:3] Ac2BA2 | 
[V:4] z6 | 
[V:1] G2B3A | 
[V:2] z2z2de | 
[V:3] G2>A2Bc | 
[V:4] z2z2G,2 | 
[V:1] F2>G2AB | 
[V:2] fga4 | 
[V:3] d4c2 | 
[V:4] D,2>E,2F,2 | 
[V:1] c2BA2G | 
[V:2] g2ff2_e | 
[V:3] _e2dc2B | 
[V:4] C,2D,F,2G, | 
[V:1] G4^F2 | 
[V:2] c2d4 | 
[V:3] G2A4 | 
[V:4] _E,2D,4 | 
[V:1] G4 |]  
[V:2] d4 |]  
[V:3] G4 |]  
[V:4] G,,4 |]  


